Pods/ProtonCore-UIFoundations/libraries/UIFoundations/Sources/Assets.xcassets/Images/IconSet/ic-arrow-over-square.imageset/ic-arrow-over-square.svg

<svg width="24" height="24" viewBox="0 0 24 24" fill="none" xmlns="http://www.w3.org/2000/svg">
<path fill-rule="evenodd" clip-rule="evenodd" d="M17.0303 2.78033L16.0604 3.75023H16.6072C18.1535 3.75023 19.5738 4.28128 20.6349 5.16605C21.7662 6.10936 22.5 7.46808 22.5 9.00023C22.5 9.41444 22.1643 9.75023 21.75 9.75023C21.3358 9.75023 21 9.41444 21 9.00023C21 7.96865 20.5089 7.01402 19.6742 6.3181C18.8897 5.66395 17.8116 5.25023 16.6072 5.25023H16.3182L17.0303 5.96231C17.3232 6.2552 17.3232 6.73008 17.0303 7.02297C16.7374 7.31586 16.2626 7.31586 15.9697 7.02297L14.0605 5.11378C13.6504 4.70373 13.6504 4.03891 14.0605 3.62886L15.9697 1.71967C16.2626 1.42678 16.7374 1.42678 17.0303 1.71967C17.3232 2.01256 17.3232 2.48744 17.0303 2.78033ZM3.75 7.50023C2.50736 7.50023 1.5 8.50759 1.5 9.75023V20.2502C1.5 21.4929 2.50736 22.5002 3.75 22.5002H14.25C15.4926 22.5002 16.5 21.4929 16.5 20.2502V9.75023C16.5 8.50759 15.4926 7.50023 14.25 7.50023H3.75ZM3 9.75023C3 9.33601 3.33579 9.00023 3.75 9.00023H14.25C14.6642 9.00023 15 9.33601 15 9.75023V20.2502C15 20.6644 14.6642 21.0002 14.25 21.0002H3.75C3.33579 21.0002 3 20.6644 3 20.2502V9.75023Z" fill="#0C0C14"/>
</svg>

<svg xmlns="http://www.w3.org/2000/svg" width="24" height="24" viewBox="0 0 24 24">
  <g class="ic-arrow-over-square">
    <path fill-rule="evenodd" d="m17.03 2.78-.97.97h.547c1.547 0 2.967.531 4.028 1.416C21.766 6.109 22.5 7.468 22.5 9A.75.75 0 1 1 21 9c0-1.031-.491-1.986-1.326-2.682-.784-.654-1.862-1.068-3.067-1.068h-.289l.712.712a.75.75 0 0 1-1.06 1.061l-1.91-1.91a1.05 1.05 0 0 1 0-1.484l1.91-1.91a.75.75 0 1 1 1.06 1.061ZM3.75 7.5A2.25 2.25 0 0 0 1.5 9.75v10.5a2.25 2.25 0 0 0 2.25 2.25h10.5a2.25 2.25 0 0 0 2.25-2.25V9.75a2.25 2.25 0 0 0-2.25-2.25H3.75ZM3 9.75A.75.75 0 0 1 3.75 9h10.5a.75.75 0 0 1 .75.75v10.5a.75.75 0 0 1-.75.75H3.75a.75.75 0 0 1-.75-.75V9.75Z" class="Icon"/>
  </g>
</svg>
